X: 2
T: Peacock Followed the Hen
C: Trad
R: Slip Jig
L: 1/8
M: 9/8
K: Clyd
r:16
Z: ABC transcription by Verge Roller
|: "Am" cde cAA cAA | "Am" cde cAA "G" B2 G | "Am" cde cAA cAA | "G" Bcd dgd B2 G :|
|: "C" cde gee gee | "C" cde gee "D" f2 d | "C" cde gee gee | "G" Bcd dgd B2 G :|
